X: 1
T: Obama's March to the White House
C: Greg Canote 2007
R: reel
Z: 2012 John Chambers <jc:trillian.mit.edu>
M: C|
L: 1/8
P: Simplified version
K: A
c2e2 |\
f4 e2c2 | B6 AB | c2c2 cBAG | F2E2 c2e2 | f4 e2c2 | B4 A2B2 | c4 c3d | c2B2 A2e2 |
f4 e2c2 | B6 AB | c2c2 cBAG | F2E2 E2FG | A4 A3F | E2C2 B,2A,2 | A,4 A,3B, | A,4 :|
E2A2 |\
F6 F2 | E4 ABc2 | B4 [B4G4] | A4   E2FG | A4 A3F | E2C2 B,2A,2 | B,4 B,3C | B,2B,2 E2A2 |
F4 F4 | E4 ABc2 | B4 [B4G4] | A2E2 E2FG | A4 A3F | E2C2 B,2A,2 | A,4 A,3B, | A,4 |]

%%sep 1 1 500

